img/Restaurant-icon.svg

<svg width="24" height="24" viewBox="0 0 24 24" fill="none" xmlns="http://www.w3.org/2000/svg">
<circle cx="12" cy="12" r="12" fill="#007AE9"/>
<g clip-path="url(#clip0)">
<path d="M17.6881 16.203L12.9827 11.4975L7.48516 6H7.05553L6.9678 6.22291C6.73626 6.81129 6.63733 7.41307 6.68175 7.96312C6.73237 8.59013 6.97057 9.13296 7.37062 9.53302L11.6623 13.8247L12.2283 13.2586L16.1959 17.6951C16.5906 18.0898 17.27 18.1133 17.6881 17.6951C18.0995 17.2837 18.0995 16.6144 17.6881 16.203Z" fill="white"/>
<path d="M9.67339 12.8306L6.31219 16.1918C5.90082 16.6031 5.90082 17.2725 6.31219 17.6839C6.70299 18.0747 7.37905 18.1092 7.80434 17.6839L11.1656 14.3227L9.67339 12.8306Z" fill="white"/>
<path d="M17.4903 7.99811L15.5836 9.90475L15.0862 9.40736L16.9929 7.50069L16.4955 7.0033L14.5889 8.90994L14.0915 8.41255L15.9981 6.50591L15.5008 6.00854L13.0138 8.4955C12.7096 8.79974 12.5279 9.20371 12.5022 9.63304C12.4957 9.74181 12.4711 9.8488 12.4302 9.95057L14.0457 11.5661C14.1475 11.5251 14.2545 11.5005 14.3632 11.494C14.7926 11.4684 15.1965 11.2867 15.5008 10.9825L17.9877 8.49552L17.4903 7.99811Z" fill="white"/>
</g>
<defs>
<clipPath id="clip0">
<rect x="6" y="6" width="12" height="12" fill="white"/>
</clipPath>
</defs>
</svg>

<svg xmlns="http://www.w3.org/2000/svg" width="24" height="24" fill="none"><circle cx="12" cy="12" r="12" fill="#007AE9"/><g fill="#fff" clip-path="url(#clip0)"><path d="M17.688 16.203l-4.705-4.705L7.485 6h-.43l-.087.223c-.232.588-.33 1.19-.286 1.74.05.627.289 1.17.689 1.57l4.291 4.292.566-.566 3.968 4.436a1.065 1.065 0 001.492 0 1.056 1.056 0 000-1.492zM9.673 12.83l-3.36 3.362a1.056 1.056 0 000 1.492c.39.39 1.066.425 1.491 0l3.362-3.361-1.493-1.492zM17.49 7.998l-1.906 1.907-.498-.498 1.907-1.906-.497-.498-1.907 1.907-.498-.497 1.907-1.907-.497-.497-2.487 2.486a1.756 1.756 0 00-.512 1.138 1.013 1.013 0 01-.072.318l1.616 1.615c.102-.04.209-.066.317-.072.43-.026.834-.207 1.138-.511l2.487-2.487-.498-.498z"/></g><defs><clipPath id="clip0"><path fill="#fff" d="M6 6h12v12H6z"/></clipPath></defs></svg>
